src/svg/folder-add.svg

<svg version="1.2" baseProfile="tiny" xmlns="http://www.w3.org/2000/svg" width="24" height="24" viewBox="0 0 24 24"><path d="M18 6h-6c0-1.104-.896-2-2-2h-4c-1.654 0-3 1.346-3 3v10c0 1.654 1.346 3 3 3h12c1.654 0 3-1.346 3-3v-8c0-1.654-1.346-3-3-3zm0 12h-12c-.552 0-1-.448-1-1v-7h4c.275 0 .5-.225.5-.5s-.225-.5-.5-.5h-4v-2c0-.552.448-1 1-1h4c0 1.104.896 2 2 2h6c.552 0 1 .448 1 1h-4c-.275 0-.5.225-.5.5s.225.5.5.5h4v7c0 .552-.448 1-1 1zM15 12h-2v-2c0-.553-.447-1-1-1s-1 .447-1 1v2h-2c-.553 0-1 .447-1 1s.447 1 1 1h2v2c0 .553.447 1 1 1s1-.447 1-1v-2h2c.553 0 1-.447 1-1s-.447-1-1-1z"/></svg>

<?xml version="1.0" encoding="iso-8859-1"?>
<!-- Generator: Adobe Illustrator 16.2.1, SVG Export Plug-In . SVG Version: 6.00 Build 0)  -->
<svg version="1.2" baseProfile="tiny" id="Layer_1" xmlns="http://www.w3.org/2000/svg" xmlns:xlink="http://www.w3.org/1999/xlink"
	 x="0px" y="0px" width="24px" height="24px" viewBox="0 0 24 24" xml:space="preserve">
<path d="M18,6h-6c0-1.104-0.896-2-2-2H6C4.346,4,3,5.346,3,7v10c0,1.654,1.346,3,3,3h12c1.654,0,3-1.346,3-3V9
	C21,7.346,19.654,6,18,6z M18,18H6c-0.552,0-1-0.448-1-1v-7h4c0.275,0,0.5-0.225,0.5-0.5S9.275,9,9,9H5V7c0-0.552,0.448-1,1-1h4
	c0,1.104,0.896,2,2,2h6c0.552,0,1,0.448,1,1h-4c-0.275,0-0.5,0.225-0.5,0.5S14.725,10,15,10h4v7C19,17.552,18.552,18,18,18z"/>
<path d="M15,12h-2v-2c0-0.553-0.447-1-1-1s-1,0.447-1,1v2H9c-0.553,0-1,0.447-1,1s0.447,1,1,1h2v2c0,0.553,0.447,1,1,1s1-0.447,1-1
	v-2h2c0.553,0,1-0.447,1-1S15.553,12,15,12z"/>
</svg>
